svgs/total_commander.svg

<svg id="vector" xmlns="http://www.w3.org/2000/svg" width="192" height="192" viewBox="0 0 192 192"><path fill="#00000000" d="M46,162H146C154.837,162 162,154.837 162,146V60L132,30H46C37.163,30 30,37.163 30,46V146C30,154.837 37.163,162 46,162Z" stroke-linejoin="round" stroke-width="12" stroke="#000000" id="path_0"/><path fill="#00000000" d="M54,160V110C54,105.582 57.582,102 62,102H130C134.418,102 138,105.582 138,110V160" stroke-linejoin="round" stroke-width="12" stroke="#000000" stroke-linecap="round" id="path_1"/><path fill="#00000000" d="M132,30V74C132,78.418 128.418,82 124,82H62C57.582,82 54,78.418 54,74V30" stroke-linejoin="round" stroke-width="12" stroke="#000000" stroke-linecap="round" id="path_2"/><path fill="#00000000" d="M74,122H118" stroke-linejoin="round" stroke-width="12" stroke="#000000" stroke-linecap="round" id="path_3"/><path fill="#00000000" d="M74,142H118" stroke-linejoin="round" stroke-width="12" stroke="#000000" stroke-linecap="round" id="path_4"/><path fill="#000000" d="M104,44L112,44A6,6 0,0 1,118 50L118,62A6,6 0,0 1,112 68L104,68A6,6 0,0 1,98 62L98,50A6,6 0,0 1,104 44z" id="path_5"/></svg>

<svg width="192" height="192" viewBox="0 0 192 192" fill="none" xmlns="http://www.w3.org/2000/svg"><path d="M46 162h100c8.837 0 16-7.163 16-16V60l-30-30H46c-8.837 0-16 7.163-16 16v100c0 8.837 7.163 16 16 16Z" stroke="#000" stroke-width="12" stroke-linejoin="round"/><path d="M54 160v-50a8 8 0 0 1 8-8h68a8 8 0 0 1 8 8v50m-6-130v44a8 8 0 0 1-8 8H62a8 8 0 0 1-8-8V30m20 92h44m-44 20h44" stroke="#000" stroke-width="12" stroke-linecap="round" stroke-linejoin="round"/><rect x="98" y="44" width="20" height="24" rx="6" fill="#000"/></svg>
